synths/sAMZN.svg

<svg width="42" height="42" viewBox="0 0 42 42" fill="none" xmlns="http://www.w3.org/2000/svg">
<g clip-path="url(#clip0_7277_57853)">
<mask id="mask0_7277_57853" style="mask-type:alpha" maskUnits="userSpaceOnUse" x="0" y="0" width="42" height="42">
<circle cx="21" cy="21" r="21" fill="url(#paint0_linear_7277_57853)"/>
</mask>
<g mask="url(#mask0_7277_57853)">
<circle cx="21" cy="21" r="21" fill="#34EDB3"/>
<circle cx="21" cy="21" r="18.2" fill="white"/>
</g>
<circle cx="21" cy="21" r="16.1" fill="#06061B"/>
<circle cx="21" cy="21" r="16.1" fill="white"/>
<path d="M9.3975 27.8249C11.6287 30.4236 14.6212 32.2874 17.955 33.1536C20.9475 33.7574 24.0712 33.4424 26.8537 32.1824C28.245 31.5524 29.505 30.6599 30.5812 29.5574C30.6862 29.3999 30.6337 29.1899 30.4762 29.0849C30.345 29.0324 30.1612 29.0324 30.03 29.0849C27.9825 30.1349 25.7775 30.8699 23.52 31.2636C21.1312 31.5261 18.7162 31.3686 16.4062 30.7649C14.0437 29.9774 11.7862 28.8486 9.73875 27.4049C9.58125 27.3524 9.42375 27.4311 9.3975 27.5886C9.37125 27.6936 9.37125 27.7724 9.3975 27.8249Z" fill="#F39700"/>
<path d="M28.3238 28.3764C29.2163 28.1926 30.135 28.1664 31.0538 28.2451H31.08C31.3688 28.3239 31.5525 28.6126 31.5 28.9276C31.3162 29.8201 31.0275 30.6864 30.66 31.5001C30.6338 31.5789 30.6862 31.6576 30.765 31.6839C30.8175 31.7101 30.8437 31.6839 30.8962 31.6576C31.9987 30.7914 32.6288 29.4789 32.6288 28.0614C32.655 27.6939 32.4187 27.3789 32.0512 27.3264C30.7125 27.0901 29.3475 27.3789 28.1925 28.1139C28.14 28.1664 28.1138 28.2451 28.1663 28.3239C28.2188 28.3764 28.2713 28.4026 28.3238 28.3764Z" fill="#F39700"/>
<path d="M23.7038 24.8326C23.2313 25.3576 22.68 25.8301 22.0763 26.2501C20.9475 26.9063 19.6613 27.2738 18.3488 27.3001C17.1938 27.2738 16.065 26.8801 15.1463 26.1976C13.5975 24.7801 12.9938 22.6276 13.6238 20.6063C14.2013 18.8476 15.54 17.4301 17.2725 16.7738C19.1625 16.1963 21.1313 15.9076 23.1263 15.9076V13.8338C22.995 12.8888 22.2338 12.1538 21.2888 12.0488C20.685 11.9701 20.1075 12.0488 19.5563 12.2851C18.7688 12.6526 18.2175 13.3613 18.0338 14.2276C17.9025 14.4901 17.6138 14.6476 17.325 14.5951L14.49 14.3326C14.2275 14.2538 14.0438 14.0438 14.0175 13.7551C14.2275 12.3376 14.9625 11.1038 16.0388 10.2113C17.4825 9.10884 19.2675 8.50509 21.105 8.53134C22.785 8.55759 24.4388 9.08259 25.83 10.0801C26.985 11.0513 27.615 12.4951 27.5363 13.9913V21.1576C27.5625 21.7613 27.72 22.3651 27.9825 22.8901L28.875 24.1763C28.98 24.3863 28.98 24.5963 28.875 24.8063L26.25 27.0376C26.0138 27.1688 25.7513 27.1426 25.5413 27.0113C24.8588 26.3551 24.2288 25.6201 23.7038 24.8326ZM23.1 18.3226C22.2863 18.2963 21.4463 18.3488 20.6325 18.4801C19.635 18.6901 18.795 19.3463 18.2963 20.2388C17.9025 21.2101 17.955 22.3126 18.48 23.2576C19.11 24.0451 20.1863 24.3076 21.105 23.9401C22.1813 23.2576 22.9163 22.1288 23.1 20.8426V18.3226Z" fill="black"/>
</g>
<defs>
<linearGradient id="paint0_linear_7277_57853" x1="21" y1="0" x2="21" y2="61.4091" gradientUnits="userSpaceOnUse">
<stop stop-color="#08021E"/>
<stop offset="1" stop-color="#1F0777"/>
</linearGradient>
<clipPath id="clip0_7277_57853">
<rect width="42" height="42" fill="white"/>
</clipPath>
</defs>
</svg>

<svg xmlns="http://www.w3.org/2000/svg" width="42" height="42" fill="none"><g clip-path="url(#a)"><mask id="c" width="42" height="42" x="0" y="0" maskUnits="userSpaceOnUse" style="mask-type:alpha"><circle cx="21" cy="21" r="21" fill="url(#b)"/></mask><g mask="url(#c)"><circle cx="21" cy="21" r="21" fill="#34EDB3"/><circle cx="21" cy="21" r="18.2" fill="#fff"/></g><circle cx="21" cy="21" r="16.1" fill="#06061B"/><circle cx="21" cy="21" r="16.1" fill="#fff"/><path fill="#F39700" d="M9.398 27.825a16.881 16.881 0 0 0 8.557 5.329c2.993.603 6.116.288 8.899-.972a12.31 12.31 0 0 0 3.727-2.625.342.342 0 0 0-.105-.472.652.652 0 0 0-.446 0 22.928 22.928 0 0 1-6.51 2.179 19.657 19.657 0 0 1-7.114-.5 25.668 25.668 0 0 1-6.667-3.36c-.158-.052-.315.027-.341.185-.027.105-.027.183 0 .236Z"/><path fill="#F39700" d="M28.324 28.376c.892-.183 1.811-.21 2.73-.13h.026a.594.594 0 0 1 .42.682 12.299 12.299 0 0 1-.84 2.572c-.026.079.026.158.105.184.052.026.079 0 .131-.026a4.54 4.54 0 0 0 1.733-3.597.672.672 0 0 0-.578-.735 5.416 5.416 0 0 0-3.859.788c-.052.052-.078.131-.026.21.053.052.105.079.158.052Z"/><path fill="#000" d="M23.704 24.833a9.42 9.42 0 0 1-1.628 1.417 7.742 7.742 0 0 1-3.727 1.05 5.614 5.614 0 0 1-3.203-1.102 5.375 5.375 0 0 1-1.522-5.592 6.145 6.145 0 0 1 3.649-3.832 20.007 20.007 0 0 1 5.853-.866v-2.074a2.09 2.09 0 0 0-1.837-1.785 3.252 3.252 0 0 0-1.733.236 2.74 2.74 0 0 0-1.522 1.943.67.67 0 0 1-.709.367l-2.835-.262a.647.647 0 0 1-.473-.578c.21-1.417.946-2.651 2.022-3.544a8.169 8.169 0 0 1 5.066-1.68 8.326 8.326 0 0 1 4.725 1.55 4.779 4.779 0 0 1 1.706 3.91v7.167a4.34 4.34 0 0 0 .447 1.732l.892 1.286a.67.67 0 0 1 0 .63l-2.625 2.232a.686.686 0 0 1-.709-.027 13.244 13.244 0 0 1-1.837-2.178Zm-.604-6.51a12.986 12.986 0 0 0-2.468.157c-.997.21-1.837.866-2.336 1.759a3.49 3.49 0 0 0 .184 3.019 2.283 2.283 0 0 0 2.625.682 4.402 4.402 0 0 0 1.995-3.097v-2.52Z"/></g><defs><linearGradient id="b" x1="21" x2="21" y1="0" y2="61.409" gradientUnits="userSpaceOnUse"><stop stop-color="#08021E"/><stop offset="1" stop-color="#1F0777"/></linearGradient><clipPath id="a"><path fill="#fff" d="M0 0h42v42H0z"/></clipPath></defs></svg>
